X: 1
T: Clueless
C: Gordon Duncan
M: 4/4
R: Reel
L: 1/8
S: Gordon Duncan's Tunes
K: Em
|:Beed efge|f2 df edBA|Bd ~d2 dBAB|d2 AB dABd|
Beed efge|f2 df edBA|Bd ~d2 dBAB|1 d2 fd e3 d:|2 d2 fd e3 f||
|ge~e2 ae~e2|geae ge~e2|fdec dBAB|d2 fd Adfd|
ge~e2 ae~e2|geae ge~e2|fdec dBAB|d2 fd e3 f|
geea eege|eaee ge~e2|fdec dBAB|d2 fd Adfd|
geea eege|eaee ge~e2|fdec dBAB|d2 fd e3 d|] 
